packages/tokens/icons/edit/size24Px.svg

<svg viewBox="0 0 24 24" fill="none" xmlns="http://www.w3.org/2000/svg" width="1em" height="1em"><path d="M21.5 10.1V19.5C21.5 20.6046 20.6046 21.5 19.5 21.5H4.49999C3.39542 21.5 2.49999 20.6046 2.49999 19.5L2.49999 4.5C2.49999 3.39543 3.39542 2.5 4.49999 2.5L13.9 2.5" stroke="currentColor" stroke-linecap="round"/><path d="M6.49998 17.5L17.5 6.5" stroke="currentColor" stroke-linecap="round"/><path d="M19.5 4.5L20.5 3.5" stroke="currentColor" stroke-linecap="round"/></svg>

<svg xmlns="http://www.w3.org/2000/svg" fill="none" viewBox="0 0 24 24" width="1em" height="1em"><path stroke="currentColor" stroke-linecap="round" d="M21.5 10.1v9.4a2 2 0 0 1-2 2h-15a2 2 0 0 1-2-2v-15a2 2 0 0 1 2-2h9.4m-7.4 15 11-11m2-2 1-1"/></svg>
